X:1
T: The Braes of Atholl
C:
R:Strathspey
Q:128
K:G
M:4/4
L:1/16
|:d2|B4 A2G2 Bcd2 efg2|B3A G2B2 AAA2 A2d2|B4 A3G Bcd2 e2B2|A2F2 D2B2 GGG2 G2:|
|:ef|g2d2 B2g2 d2g2 d2B2|gfed B2g2 f4 A2ef|gfed B2g2 d2g2 d2B2|cBAG F2A2 GGG2 G2:|
|:c2|B2G2 B2G2 B2G2 Bcd2|B2G2 Bcd2 g4 A4|B2G2 B2G2 B2G2 Bcd2|D4 D2B2 GGG2 G2:|
|:B2|G2g2 gfed B2g2 gfed|B2g2 z2g2 f4 A2ef|gfed B2g2 d2g2 d2B2|cBAG F2A2 GGG2 G2:|
